#lang reader "project4.rkt"
; First inchworm
RIGHT 90
PENDOWN
COLOR green
SETPOS 20 300

; Flat
FORWARD 20

; Leg 1
PENUP
RIGHT 90
PENDOWN
FORWARD 15
PENUP
BACK 15
LEFT 90
PENDOWN

; Hump 1
LEFT 45
FORWARD 21
LEFT 45
FORWARD 21
RIGHT 45
FORWARD 21
RIGHT 45

; Flat
FORWARD 20

; Leg 2
PENUP
RIGHT 90
PENDOWN
FORWARD 15
PENUP
BACK 15
LEFT 90
PENDOWN

; Hump 2
LEFT 45
FORWARD 25
LEFT 45
FORWARD 25
RIGHT 45
FORWARD 25
RIGHT 45

; Flat
FORWARD 20

; Leg 3
PENUP
RIGHT 90
PENDOWN
FORWARD 15
PENUP
BACK 15
LEFT 90
PENDOWN

; Hump 3
LEFT 45
FORWARD 29
LEFT 45
FORWARD 29
RIGHT 45
FORWARD 29
RIGHT 45

; Flat
FORWARD 20

; Leg 4
PENUP
RIGHT 90
PENDOWN
FORWARD 15
PENUP
BACK 15
LEFT 90
PENDOWN

; Hump 4
LEFT 45
FORWARD 29
LEFT 45
FORWARD 29
RIGHT 45
FORWARD 29
RIGHT 45

; Flat
FORWARD 20

; Leg 5
PENUP
RIGHT 90
PENDOWN
FORWARD 15
PENUP
BACK 15
LEFT 90
PENDOWN

; Hump 5
LEFT 45
FORWARD 25
LEFT 45
FORWARD 25
RIGHT 45
FORWARD 25
RIGHT 45

; Flat
FORWARD 20

; Leg 6
PENUP
RIGHT 90
PENDOWN
FORWARD 15
PENUP
BACK 15
LEFT 90
PENDOWN

; Hump 6
LEFT 45
FORWARD 21
LEFT 45
FORWARD 21
RIGHT 45
FORWARD 21
RIGHT 45

; Final flat
FORWARD 20

; Face - little antenna
PENUP
RIGHT 90
PENDOWN
FORWARD 10
LEFT 45
FORWARD 8
PENUP
BACK 8
RIGHT 45
FORWARD 5
LEFT 45
FORWARD 8
PENUP
BACK 8
RIGHT 45
BACK 15
LEFT 90
PENDOWN

; Second inchworm
PENUP
SETPOS 20 350
LEFT 180
PENDOWN
COLOR red

; Flat
FORWARD 20

; Leg 1
PENUP
LEFT 90
PENDOWN
FORWARD 15
PENUP
BACK 15
RIGHT 90
PENDOWN

; Hump 1
RIGHT 45
FORWARD 21
RIGHT 45
FORWARD 21
LEFT 45
FORWARD 21
LEFT 45

; Flat
FORWARD 20

; Leg 2
PENUP
LEFT 90
PENDOWN
FORWARD 15
PENUP
BACK 15
RIGHT 90
PENDOWN

; Hump 2
RIGHT 45
FORWARD 25
RIGHT 45
FORWARD 25
LEFT 45
FORWARD 25
LEFT 45

; Flat
FORWARD 20

; Leg 3
PENUP
LEFT 90
PENDOWN
FORWARD 15
PENUP
BACK 15
RIGHT 90
PENDOWN

; Hump 3
RIGHT 45
FORWARD 29
RIGHT 45
FORWARD 29
LEFT 45
FORWARD 29
LEFT 45

; Flat
FORWARD 20

; Leg 4
PENUP
LEFT 90
PENDOWN
FORWARD 15
PENUP
BACK 15
RIGHT 90
PENDOWN

; Hump 4
RIGHT 45
FORWARD 29
RIGHT 45
FORWARD 29
LEFT 45
FORWARD 29
LEFT 45

; Flat
FORWARD 20

; Leg 5
PENUP
LEFT 90
PENDOWN
FORWARD 15
PENUP
BACK 15
RIGHT 90
PENDOWN

; Hump 5
RIGHT 45
FORWARD 25
RIGHT 45
FORWARD 25
LEFT 45
FORWARD 25
LEFT 45

; Flat
FORWARD 20

; Leg 6
PENUP
LEFT 90
PENDOWN
FORWARD 15
PENUP
BACK 15
RIGHT 90
PENDOWN

; Hump 6
RIGHT 45
FORWARD 21
RIGHT 45
FORWARD 21
LEFT 45
FORWARD 21
LEFT 45

; Final flat
FORWARD 20

; Face
PENUP
LEFT 90
PENDOWN
FORWARD 10
RIGHT 45
FORWARD 8
PENUP
BACK 8
LEFT 45
FORWARD 5
RIGHT 45
FORWARD 8
PENUP
BACK 8
LEFT 45
BACK 15
RIGHT 90
PENDOWN