#lang reader "project4.rkt"
PENDOWN
SETPOS 100 250

COLOR purple
FORWARD 50
RIGHT 15
FORWARD 50
RIGHT 15
FORWARD 50
RIGHT 15
FORWARD 50
RIGHT 15

COLOR green
FORWARD 50
RIGHT 25
FORWARD 50
RIGHT 25
FORWARD 50
RIGHT 25
FORWARD 50
RIGHT 25

COLOR red
FORWARD 50
RIGHT 35
FORWARD 50
RIGHT 35
FORWARD 50
RIGHT 35
FORWARD 50
RIGHT 35

COLOR blue
FORWARD 50
RIGHT 45
FORWARD 50
RIGHT 45
FORWARD 50
RIGHT 45
FORWARD 50
RIGHT 45

COLOR yellow
FORWARD 50
RIGHT 55
FORWARD 50
RIGHT 55
FORWARD 50
RIGHT 55
FORWARD 50
RIGHT 55

COLOR black
FORWARD 50
RIGHT 75
FORWARD 50
RIGHT 75
FORWARD 50
RIGHT 75
FORWARD 50
RIGHT 75

COLOR orange
FORWARD 40
RIGHT 95
FORWARD 40
RIGHT 95
FORWARD 40
RIGHT 95
FORWARD 40
RIGHT 95

COLOR cyan
FORWARD 20
RIGHT 115
FORWARD 20
RIGHT 115
FORWARD 20
RIGHT 115
FORWARD 20
RIGHT 115

SETPOS 100 250

COLOR purple
FORWARD 50
RIGHT 15
FORWARD 50
RIGHT 15
FORWARD 50
RIGHT 15
FORWARD 50
RIGHT 15

COLOR green
FORWARD 50
RIGHT 25
FORWARD 50
RIGHT 25
FORWARD 50
RIGHT 25
FORWARD 50
RIGHT 25

COLOR red
FORWARD 50
RIGHT 35
FORWARD 50
RIGHT 35
FORWARD 50
RIGHT 35
FORWARD 50
RIGHT 35

COLOR blue
FORWARD 50
RIGHT 45
FORWARD 50
RIGHT 45
FORWARD 50
RIGHT 45
FORWARD 50
RIGHT 45

COLOR yellow
FORWARD 50
RIGHT 55
FORWARD 50
RIGHT 55
FORWARD 50
RIGHT 55
FORWARD 50
RIGHT 55

COLOR black
FORWARD 50
RIGHT 75
FORWARD 50
RIGHT 75
FORWARD 50
RIGHT 75
FORWARD 50
RIGHT 75

COLOR orange
FORWARD 40
RIGHT 95
FORWARD 40
RIGHT 95
FORWARD 40
RIGHT 95
FORWARD 40
RIGHT 95

COLOR cyan
FORWARD 20
RIGHT 115
FORWARD 20
RIGHT 115
FORWARD 20
RIGHT 115
FORWARD 20
RIGHT 115

SETPOS 100 250

COLOR purple
FORWARD 50
RIGHT 15
FORWARD 50
RIGHT 15
FORWARD 50
RIGHT 15
FORWARD 50
RIGHT 15

COLOR green
FORWARD 50
RIGHT 25
FORWARD 50
RIGHT 25
FORWARD 50
RIGHT 25
FORWARD 50
RIGHT 25

COLOR red
FORWARD 50
RIGHT 35
FORWARD 50
RIGHT 35
FORWARD 50
RIGHT 35
FORWARD 50
RIGHT 35

COLOR blue
FORWARD 50
RIGHT 45
FORWARD 50
RIGHT 45
FORWARD 50
RIGHT 45
FORWARD 50
RIGHT 45

COLOR yellow
FORWARD 50
RIGHT 55
FORWARD 50
RIGHT 55
FORWARD 50
RIGHT 55
FORWARD 50
RIGHT 55

COLOR black
FORWARD 50
RIGHT 75
FORWARD 50
RIGHT 75
FORWARD 50
RIGHT 75
FORWARD 50
RIGHT 75

COLOR orange
FORWARD 40
RIGHT 95
FORWARD 40
RIGHT 95
FORWARD 40
RIGHT 95
FORWARD 40
RIGHT 95

COLOR cyan
FORWARD 20
RIGHT 115
FORWARD 20
RIGHT 115
FORWARD 20
RIGHT 115
FORWARD 20
RIGHT 115

SETPOS 100 250

COLOR purple
FORWARD 50
RIGHT 15
FORWARD 50
RIGHT 15
FORWARD 50
RIGHT 15
FORWARD 50
RIGHT 15

COLOR green
FORWARD 50
RIGHT 25
FORWARD 50
RIGHT 25
FORWARD 50
RIGHT 25
FORWARD 50
RIGHT 25

COLOR red
FORWARD 50
RIGHT 35
FORWARD 50
RIGHT 35
FORWARD 50
RIGHT 35
FORWARD 50
RIGHT 35

COLOR blue
FORWARD 50
RIGHT 45
FORWARD 50
RIGHT 45
FORWARD 50
RIGHT 45
FORWARD 50
RIGHT 45

COLOR yellow
FORWARD 50
RIGHT 55
FORWARD 50
RIGHT 55
FORWARD 50
RIGHT 55
FORWARD 50
RIGHT 55

COLOR black
FORWARD 50
RIGHT 75
FORWARD 50
RIGHT 75
FORWARD 50
RIGHT 75
FORWARD 50
RIGHT 75

COLOR orange
FORWARD 40
RIGHT 95
FORWARD 40
RIGHT 95
FORWARD 40
RIGHT 95
FORWARD 40
RIGHT 95

COLOR cyan
FORWARD 20
RIGHT 115
FORWARD 20
RIGHT 115
FORWARD 20
RIGHT 115
FORWARD 20
RIGHT 115

LEFT 160
FORWARD 100

