#lang reader "project4.rkt"
PENDOWN
REPEAT 3
  FORWARD 50
  RIGHT 90
END
FORWARD 50
RIGHT 10
REPEAT 3
  FORWARD 60
  RIGHT 90
END
FORWARD 60
RIGHT 10
REPEAT 3
  FORWARD 70
  RIGHT 90
END
FORWARD 70
RIGHT 10
REPEAT 3
  FORWARD 80
  RIGHT 90
END
FORWARD 80